X: 1
T: 1 2 3 4
O: from Eileen McCoy Bega NSW
R: reel
Z: 2014 John Chambers <jc:trillian.mit.edu>
N: In a set for Galopede
S: http://www.kangaroovalleyfolkfestival.com.au/USERIMAGES/Bush%20Dance%2014-05-03.pdf
M: C
L: 1/8
K: G
|:\
 "G"D2 DD G2 GG | B2 BB d2 B2 |\
"D7"cd cB A2 d2 | "G"Bd BA G2 G2 |\
 "G"D2 DD G2 GG | B2 BB d2 B2 |
"D7"cd cB AD EF | "G"G2 GG G2 G2 \
::\
"C"e4 "G7"d4 | "C"c6 EF |\
G2 E2 c2 E2 | "G"FG FE D4 |
"G7"d3 e d2 c2 | B3 d B2 BA |\
[1 G2 GG A2 G2 | "C"E6 G2 :|\
[2 "G7"GG GG A2 B2 | "C"c4 c4 |]





